!!!!SEGMENT: pl-cz--ii-153--008_maader-ludwik--requiem-in-dis-requiem.krn
!!!cenid: 17xx:967
!!!COM: Maader, Ludwik
!!!COM-rismID:
!!!CDT: <1794->1798
!!!CNT:
!!!OPR: Requiem in Dis
!!!OTL: Requiem
!!!OMV: 008
!!!PDT:
!!!AGN: Sacred; Requiem
!!!SMS-siglum: PL-CZ
!!!SMS-shelfmark: II-153
!!!SMS-shelfwork: 001-008 M
!!!SMS-variant:
!!!SMS-altvar:
!!!NIFC-rismSourceID: 300000766
!!!NIFC-islandoraID: pl-cz:32572
!!!URL-pdf-islandora: https://repozytorium.nifc.pl/islandora/object/pl-cz%3A32572/datastream/PDF/view
!!!URL-scan:
!!!ONB-nifc: UWAGA: części Requiem: Requiem, Dies irae, Domine Jesu Christe, Sanctus, Benedictus, Agnus, Lux aeterna, Requiem
!!!AIN: 1 alto 3 empty 1 organ 1 tenor 3 violn 1 vox
!!!key:
**kern	**fba	**dynam	**kern	**dynam	**kern	**dynam	**kern	**kern	**text	**kern	**text	**kern	**text	**kern	**text	**kern	**dynam	**kern	**dynam
*	*	*	*group3	*	*group3	*	*group3	*group2	*	*group2	*	*group2	*	*group2	*	*group1	*	*group1	*
*part10	*	*part10	*part9	*part9	*part8	*part8	*part7	*part6	*part6	*part5	*part5	*part4	*part4	*part3	*part3	*part2	*part2	*part1	*part1
*staff10	*	*	*staff9	*	*staff8	*	*staff7	*staff6	*staff6	*staff5	*staff5	*staff4	*staff4	*staff3	*staff3	*staff2	*	*staff1	*
*Iorgan	*	*	*Ivioln	*	*Ivioln	*	*Ivioln	*Iempty	*	*Itenor	*	*Ialto	*	*Ivox	*	*Iempty	*	*Iempty	*
*I"Organo.	*	*	*I"Violino Secondo.	*	*I"Violino Primo	*	*I"Violino Principale	*I"Baſso	*	*I"Tenore	*	*I"Alto	*	*I"Canto	*	*I"Cornu Secondo Obl in Dis	*	*I"Cornu Primo in Dis Obl:	*
*I'org	*	*	*I'vl 2	*	*I'vl 1	*	*I'vl princ	*I'B	*	*I'T	*	*I'A	*	*I'S	*	*I'cor 2	*	*I'cor 1	*
*clefF4	*	*	*clefG2	*	*clefG2	*	*clefG2	*clefF4	*	*clefC4	*	*clefC3	*	*clefC1	*	*clefG2	*	*clefG2	*
*	*	*	*	*	*	*	*	*	*	*	*	*	*	*	*	*ITrd5c9	*	*ITrd5c9	*
*k[b-e-a-]	*	*	*k[]	*	*k[b-e-a-]	*	*k[b-e-a-]	*k[b-e-a-]	*	*k[b-e-a-]	*	*k[b-e-a-]	*	*k[b-e-a-]	*	*k[b-e-a-]	*	*k[b-e-a-]	*
*E-:	*	*	*E-:	*	*E-:	*	*E-:	*E-:	*	*E-:	*	*E-:	*	*E-:	*	*E-:	*	*E-:	*
*M4/4	*	*	*M4/4	*	*M4/4	*	*M4/4	*M4/4	*	*M4/4	*	*M4/4	*	*M4/4	*	*M4/4	*	*M4/4	*
*met(c)	*	*	*met(c)	*	*met(c)	*	*met(c)	*met(c)	*	*met(c)	*	*met(c)	*	*met(c)	*	*met(c)	*	*met(c)	*
=1	=1	=1	=1	=1	=1	=1	=1	=1	=1	=1	=1	=1	=1	=1	=1	=1	=1	=1	=1
*all\right	*	*	*all\right	*	*	*	*	*	*	*	*	*	*	*	*	*all\right	*	*all\right	*
*	*	*	*^	*	*	*	*	*	*	*	*	*	*	*	*	*	*	*	*
*2\right	*	*	*	*	*	*	*	*	*	*	*	*	*	*	*	*	*2\right	*	*2\right	*
*tremolo	*	*	*tremolo	*tremolo	*	*	*	*	*	*	*	*	*	*	*	*	*	*	*	*
!LO:TX:a:t=adagio	!	!	!	!	!	!LO:TX:t=P:problem=znaki b- gg- a-	!	!	!	!	!	!	!	!	!	!	!	!	!	!
!LO:TX:b:t=Requiem	!	!	!LO:TX:b:t=Requiem	!	!	!LO:TX:a:t=adagio	!	!	!LO:TX:t=P:problem=znaki C- A- BB-	!	!LO:TX:t=P:problem=znaki A- d- G-	!	!LO:TX:t=P:problem=znaki c- g- B-	!	!LO:TX:a:t=adagio	!	!LO:TX:a:t=Adag	!	!LO:TX:a:t=Adagio	!
!	!	!	!LO:TX:a:t=adagio	!	!	!LO:TX:b:t=Requiem	!	!	!LO:TX:a:t=adagio	!	!LO:TX:a:t=adagio	!	!LO:TX:a:t=adagio	!	!LO:TX:t=P:problem=znaki b- f- ee-	!	!LO:TX:b:t=Requiem	!	!LO:TX:b:t=Requiem	!
!	!	!	!LO:SIC:v:s=8b-/L	!	!	!	!	!	!	!	!	!	!	!	!	!	!	!	!	!
8E-\L	.	.	8b/L	8g\L	.	(16b-\LL	.	1ryy	8.E-\	Re-	8.B-\	Re-	8.g\	Re-	8.ee-\	Re-	2e-\	.	2g\	.
.	.	.	.	.	.	16ee-\	.	.	.	.	.	.	.	.	.	.	.	.	.	.
!	!	!	!LO:SIC:v:s=8b-/	!	!	!	!	!	!	!	!	!	!	!	!	!	!	!	!	!
8E-\	.	.	8b/	8g\	.	16gg\)	.	.	.	.	.	.	.	.	.	.	.	.	.	.
.	.	.	.	.	.	16ee-\JJ	.	.	16E-\	-qui-	16B-\	-qui-	16g\	-qui-	16ee-\	-qui-	.	.	.	.
!	!	!	!LO:SIC:v:s=8b-/	!	!	!	!	!	!	!	!	!	!	!	!	!	!	!	!	!
8E-\	.	.	8b/	8g\	.	(16b-\LL	.	.	8E-\	-em	8B-\	-em	8g\	-em	8ee-\	-em	.	.	.	.
.	.	.	.	.	.	16ee-\	.	.	.	.	.	.	.	.	.	.	.	.	.	.
!	!	!	!LO:SIC:v:s=8b-/J	!	!	!	!	!	!	!	!	!	!	!	!	!	!	!	!	!
8E-\J	.	.	8b/J	8g\J	.	16gg\)	.	.	8E-\	ae-	8B-\	ae-	8g\	ae-	8ee-\	ae-	.	.	.	.
.	.	.	.	.	.	16ee-\JJ	.	.	.	.	.	.	.	.	.	.	.	.	.	.
!	!	!	!LO:SIC:v:s=8b-/L	!LO:SIC:v:s=8a-\L	!	!	!	!	!	!	!	!	!	!	!	!	!	!	!	!
8D\L	6 5	.	8b/L	8a\L	.	(16b-\LL	.	.	4D\	-ter-	4B-\	-ter-	4a-\	-ter-	4ff\	-ter-	2f\	.	2a-\	.
.	.	.	.	.	.	16ff\	.	.	.	.	.	.	.	.	.	.	.	.	.	.
!	!	!	!LO:SIC:v:s=8b-/	!LO:SIC:v:s=8a-\	!	!	!	!	!	!	!	!	!	!	!	!	!	!	!	!
8D\	.	.	8b/	8a\	.	16aa-\)	.	.	.	.	.	.	.	.	.	.	.	.	.	.
.	.	.	.	.	.	16ff\JJ	.	.	.	.	.	.	.	.	.	.	.	.	.	.
!	!	!	!LO:SIC:v:s=8b-/	!LO:SIC:v:s=8a-\	!	!	!	!	!	!	!	!	!	!	!	!	!	!	!	!
8D\	.	.	8b/	8a\	.	(16b-\LL	.	.	4D\	-nam	4B-\	-nam	4a-\	-nam	4ff\	-nam	.	.	.	.
.	.	.	.	.	.	16ff\	.	.	.	.	.	.	.	.	.	.	.	.	.	.
!	!	!	!LO:SIC:v:s=8b-/J	!LO:SIC:v:s=8a-\J	!	!	!	!	!	!	!	!	!	!	!	!	!	!	!	!
8D\J	.	.	8b/J	8a\J	.	16aa-\)	.	.	.	.	.	.	.	.	.	.	.	.	.	.
.	.	.	.	.	.	16ff\JJ	.	.	.	.	.	.	.	.	.	.	.	.	.	.
=2	=2	=2	=2	=2	=2	=2	=2	=2	=2	=2	=2	=2	=2	=2	=2	=2	=2	=2	=2	=2
*	*	*	*	*tremolo	*	*	*	*	*	*	*	*	*	*	*	*	*	*	*	*
!	!	!	!LO:SIC:v:s=8b-/L	!	!	!	!	!	!	!	!	!	!	!	!	!	!	!	!	!
8E-\L	.	.	8b/L	8g\L	.	(16b-\LL	.	1ryy	8.E-\	do-	8.B-\	do-	8.g\	do-	8.ee-\	do-	2e-\	.	2g\	.
.	.	.	.	.	.	16ee-\	.	.	.	.	.	.	.	.	.	.	.	.	.	.
!	!	!	!LO:SIC:v:s=8b-/	!	!	!	!	!	!	!	!	!	!	!	!	!	!	!	!	!
8E-\	.	.	8b/	8g\	.	16gg\)	.	.	.	.	.	.	.	.	.	.	.	.	.	.
.	.	.	.	.	.	16ee-\JJ	.	.	16E-\	-na	16B-\	-na	16g\	-na	16ee-\	-na	.	.	.	.
!	!	!	!LO:SIC:v:s=8b-/	!	!	!	!	!	!	!	!	!	!	!	!	!	!	!	!	!
8E-\	.	.	8b/	8g\	.	(16b-\LL	.	.	8E-\	e-	8B-\	e-	8g\	e-	8ee-\	e-	.	.	.	.
.	.	.	.	.	.	16ee-\	.	.	.	.	.	.	.	.	.	.	.	.	.	.
!	!	!	!LO:SIC:v:s=8b-/J	!	!	!	!	!	!	!	!	!	!	!	!	!	!	!	!	!
8E-\J	.	.	8b/J	8g\J	.	16gg\	.	.	8E-\	-is	8B-\	-is	8g\	-is	8ee-\	-is	.	.	.	.
.	.	.	.	.	.	16ee-\JJ)	.	.	.	.	.	.	.	.	.	.	.	.	.	.
.	.	.	.	.	.	8qqgg/	.	.	.	.	.	.	.	.	.	.	.	.	.	.
*Xtremolo	*	*	*Xtremolo	*Xtremolo	*	*	*	*	*	*	*	*	*	*	*	*	*	*	*	*
!	!	!	!LO:SIC:v:s=4b-/	!	!	!	!	!	!	!	!	!	!	!	!	!	!	!	!	!
4BB-/	.	.	4b/	4f\	.	8ff\L	.	.	8.B-\	do-	8.B-\	do-	8.f\	do-	8.dd\	do-	4B-/	.	4f\	.
.	.	.	.	.	.	8qqee-/	.	.	.	.	.	.	.	.	.	.	.	.	.	.
.	.	.	.	.	.	8dd\J	.	.	.	.	.	.	.	.	.	.	.	.	.	.
.	.	.	.	.	.	.	.	.	16BB-/	-mi-	16B-\	-mi-	16f\	-mi-	16dd\	-mi-	.	.	.	.
.	.	.	.	.	.	8qqcc/	.	.	.	.	.	.	.	.	.	.	.	.	.	.
4r	.	.	4r	4ryy	.	8b-\L	.	.	8BB-/	-ne	8B-\	-ne	8f\	-ne	8dd\	-ne	4r	.	4r	.
.	.	.	.	.	.	(16bb-\L	.	.	8r	.	8r	.	8r	.	8r	.	.	.	.	.
.	.	.	.	.	.	16dd\JJ)	.	.	.	.	.	.	.	.	.	.	.	.	.	.
!	!	!	!	!	!	!LO:LB:g=original	!	!	!LO:LB:g=original	!	!LO:LB:g=original	!	!LO:LB:g=original	!	!	!	!	!	!	!
=3	=3	=3	=3	=3	=3	=3	=3	=3	=3	=3	=3	=3	=3	=3	=3	=3	=3	=3	=3	=3
*tremolo	*	*	*tremolo	*tremolo	*	*	*	*	*	*	*	*	*	*	*	*	*	*	*	*
!	!	!	!LO:SIC:v:s=8b-/L	!	!	!	!	!	!	!	!	!	!	!	!	!	!	!	!	!
8E-\L	.	.	8b/L	8g\L	.	(16b-\LL	.	1ryy	4E-\	et	4B-\	et	4g\	et	4ee-\	et	2e-\	.	2g\	.
.	.	.	.	.	.	16ee-\	.	.	.	.	.	.	.	.	.	.	.	.	.	.
!	!	!	!LO:SIC:v:s=8b-/	!	!	!	!	!	!	!	!	!	!	!	!	!	!	!	!	!
8E-\	.	.	8b/	8g\	.	16gg\)	.	.	.	.	.	.	.	.	.	.	.	.	.	.
.	.	.	.	.	.	16ee-\JJ	.	.	.	.	.	.	.	.	.	.	.	.	.	.
!	!	!	!LO:SIC:v:s=8b-/	!	!	!	!	!	!	!	!	!	!	!	!	!	!	!	!	!
8E-\	.	.	8b/	8g\	.	(16b-\LL	.	.	8E-\	lux	8B-\	lux	8g\	lux	8ee-\	lux	.	.	.	.
.	.	.	.	.	.	16ee-\	.	.	.	.	.	.	.	.	.	.	.	.	.	.
!	!	!	!LO:SIC:v:s=8b-/J	!	!	!	!	!	!	!	!	!	!	!	!	!	!	!	!	!
8E-\J	.	.	8b/J	8g\J	.	16gg\)	.	.	8E-\	per-	8B-\	per-	8g\	per-	8ee-\	per-	.	.	.	.
.	.	.	.	.	.	16ee-\JJ	.	.	.	.	.	.	.	.	.	.	.	.	.	.
!	!	!	!LO:SIC:v:s=8b-/L	!LO:SIC:v:s=8a-\L	!	!	!	!	!	!	!	!	!	!	!LO:LB:g=original	!	!	!	!	!
8D\L	6 5	.	8b/L	8a\L	.	(16b-\LL	.	.	8.D\	-pe-	8.B-\	-pe-	8.a-\	-pe-	8.ff\	-pe-	2f\	.	2a-\	.
.	.	.	.	.	.	16ff\	.	.	.	.	.	.	.	.	.	.	.	.	.	.
!	!	!	!LO:SIC:v:s=8b-/	!LO:SIC:v:s=8a-\	!	!	!	!	!	!	!	!	!	!	!	!	!	!	!	!
8D\	.	.	8b/	8a\	.	16aa-\)	.	.	.	.	.	.	.	.	.	.	.	.	.	.
.	.	.	.	.	.	16ff\JJ	.	.	16D\	-tu-	16B-\	-tu-	16a-\	-tu-	16ff\	-tu-	.	.	.	.
!	!	!	!LO:SIC:v:s=8b-/	!LO:SIC:v:s=8a-\	!	!	!	!	!	!	!	!	!	!	!	!	!	!	!	!
8D\	.	.	8b/	8a\	.	(16b-\LL	.	.	4D\	-a	4B-\	-a	4a-\	-a	4ff\	-a	.	.	.	.
.	.	.	.	.	.	16ff\	.	.	.	.	.	.	.	.	.	.	.	.	.	.
!	!	!	!LO:SIC:v:s=8b-/J	!LO:SIC:v:s=8a-\J	!	!	!	!	!	!	!	!	!	!	!	!	!	!	!	!
8D\J	.	.	8b/J	8a\J	.	16aa-\)	.	.	.	.	.	.	.	.	.	.	.	.	.	.
.	.	.	.	.	.	16ff\JJ	.	.	.	.	.	.	.	.	.	.	.	.	.	.
*Xtremolo	*	*	*Xtremolo	*Xtremolo	*	*	*	*	*	*	*	*	*	*	*	*	*	*	*	*
*	*	*	*v	*v	*	*	*	*	*	*	*	*	*	*	*	*	*	*	*	*
=4	=4	=4	=4	=4	=4	=4	=4	=4	=4	=4	=4	=4	=4	=4	=4	=4	=4	=4	=4
!	!	!	!LO:SIC:v:s=4b- 4B-/	!	!	!	!	!	!	!	!	!	!	!	!	!	!	!	!
8E-\L	5_ 3	.	4b 4B/	.	16gg\LL	.	1ryy	8E-\L	lu-	4B-\	lu-	8g\L	lu-	8ee-\L	lu-	8e-\	.	8g\	.
.	.	.	.	.	16bb-\JJ	.	.	.	.	.	.	.	.	.	.	.	.	.	.
8F\	_ 6	.	.	.	32bb-\LLL	.	.	8F\J	.	.	.	8a-\J	.	8dd\J	.	8r	.	8r	.
.	.	.	.	.	32aa-\	.	.	.	.	.	.	.	.	.	.	.	.	.	.
.	.	.	.	.	32gg\	.	.	.	.	.	.	.	.	.	.	.	.	.	.
.	.	.	.	.	32ff\JJJ	.	.	.	.	.	.	.	.	.	.	.	.	.	.
!	!	!	!LO:SIC:v:s=4b- 4B-/	!	!	!	!	!	!	!	!	!	!	!	!	!	!	!	!
8G\	_ 6	.	4b 4B/	.	16ee-\LL	.	.	8G\	-ce-	8B-\	-ce-	8g\	-ce-	8ee-\	-ce-	4r	.	4r	.
.	.	.	.	.	16b-\	.	.	.	.	.	.	.	.	.	.	.	.	.	.
8D\J	.	.	.	.	16ff\	.	.	8D\	-at	8B-\	-at	8a-\	-at	8ff\	-at	.	.	.	.
.	.	.	.	.	16aa-\JJ	.	.	.	.	.	.	.	.	.	.	.	.	.	.
!	!	!	!LO:SIC:v:s=4b- 4B-/	!	!	!	!	!	!	!	!	!	!	!	!	!	!	!	!
8E-\L	_ 3	.	4b 4B/	.	16gg\LL	.	.	8E-\L	e-	4B-\	e-	8g\L	e-	8ee-\L	e-	2r	.	2r	.
.	.	.	.	.	16bb-\JJ	.	.	.	.	.	.	.	.	.	.	.	.	.	.
8F\	_ 6	.	.	.	32bb-\LLL	.	.	8F\J	.	.	.	8a-\J	.	8dd\J	.	.	.	.	.
.	.	.	.	.	32aa-\	.	.	.	.	.	.	.	.	.	.	.	.	.	.
.	.	.	.	.	32gg\	.	.	.	.	.	.	.	.	.	.	.	.	.	.
.	.	.	.	.	32ff\JJJ	.	.	.	.	.	.	.	.	.	.	.	.	.	.
8G\	_ 6	.	16g/LL	.	16ee-\LL	.	.	8G\	-is	8B-\	-is	8g\	-is	8ee-\	-is	.	.	.	.
.	.	.	16g/	.	16ee-\	.	.	.	.	.	.	.	.	.	.	.	.	.	.
8E-\J	x	.	16dd/	.	16ff\	.	.	8r	.	8r	.	8r	.	8r	.	.	.	.	.
!	!	!	!LO:SIC:v:s=16ee-/JJ	!	!	!	!	!	!	!	!	!	!	!	!	!	!	!	!
.	.	.	16ee/JJ	.	16gg\JJ	.	.	.	.	.	.	.	.	.	.	.	.	.	.
=5	=5	=5	=5	=5	=5	=5	=5	=5	=5	=5	=5	=5	=5	=5	=5	=5	=5	=5	=5
*	*	*	*	*	*	*	*	*	*	*2\right	*	*2\right	*	*2\right	*	*	*	*	*
2BB-/	.	.	16ff\LL	.	16aa-\LL	.	1ryy	2BB-/	e-	2d\	e-	2a-\	e-	2ff\	e-	2B-/	.	2f\	.
!	!	!	!LO:SIC:v:s=16ee-\	!	!	!	!	!	!	!	!	!	!	!	!	!	!	!	!
.	.	.	16ee\	.	16gg\	.	.	.	.	.	.	.	.	.	.	.	.	.	.
.	.	.	16dd\	.	(16ff\	.	.	.	.	.	.	.	.	.	.	.	.	.	.
.	.	.	16cc\JJ	.	16ee-\JJ	.	.	.	.	.	.	.	.	.	.	.	.	.	.
!	!	!	!LO:SIC:v:s=16b-/LL	!	!	!	!	!	!	!	!	!	!	!	!	!	!	!	!
.	.	.	16b/LL	.	16dd\LL	.	.	.	.	.	.	.	.	.	.	.	.	.	.
!	!	!	!LO:SIC:v:s=16a-/	!	!	!	!	!	!	!	!	!	!	!	!	!	!	!	!
.	.	.	16a/	.	16cc\)	.	.	.	.	.	.	.	.	.	.	.	.	.	.
.	.	.	16g/	.	16b-\	.	.	.	.	.	.	.	.	.	.	.	.	.	.
.	.	.	16f/JJ	.	16a-\JJ	.	.	.	.	.	.	.	.	.	.	.	.	.	.
!LO:LB:g=original	!	!	!LO:LB:g=original	!	!	!	!	!	!	!	!	!	!	!	!	!	!	!	!
!	!	!	!LO:SIC:v:s=16e-/LL	!	!	!	!	!	!	!	!	!	!	!	!	!	!	!	!
8E-\	.	.	16e/LL	.	(16g\LL	.	.	8E-\	-is	8e-\	-is	8g\	-is	8ee-\	-is	8e-\	.	8g\	.
.	.	.	16g/	.	16b-\	.	.	.	.	.	.	.	.	.	.	.	.	.	.
8r	.	.	16g/	.	16b-\)	.	.	8r	.	8r	.	8r	.	8r	.	8r	.	8r	.
.	.	.	16g/JJ	.	16ee-\JJ	.	.	.	.	.	.	.	.	.	.	.	.	.	.
!	!	!	!LO:TX:t=P:problem=mixed beam	!	!	!	!	!	!	!	!	!	!	!	!	!	!	!	!
8r	.	.	16g/LL	.	(16ee-\LL	.	.	4r	.	4r	.	4r	.	4r	.	8r	.	8r	.
!	!	!	!LO:SIC:v:s=16ee-\	!	!	!	!	!	!	!	!	!	!	!	!	!	!	!	!
.	.	.	16ee\	.	16gg\	.	.	.	.	.	.	.	.	.	.	.	.	.	.
!	!	!	!LO:SIC:v:s=16ee-\	!	!	!	!	!	!	!	!	!	!	!	!	!	!	!	!
8E-\	.	.	16ee\	.	16gg\)	.	.	.	.	.	.	.	.	.	.	8e-\	.	8g\	.
.	.	.	16gg\JJ	.	16bb-\JJ	.	.	.	.	.	.	.	.	.	.	.	.	.	.
!	!	!	!	!	!LO:LB:g=original	!	!	!	!	!	!	!	!	!	!	!	!	!	!
=6	=6	=6	=6	=6	=6	=6	=6	=6	=6	=6	=6	=6	=6	=6	=6	=6	=6	=6	=6
2BB-/	7	.	(32ff\LLL	.	(32aa-\LLL	.	1ryy	2BB-/	e-	2d\	e-	2a-\	e-	2ff\	e-	2B-/	.	2f\	.
.	.	.	32gg\	.	32bb-\	.	.	.	.	.	.	.	.	.	.	.	.	.	.
!	!	!	!LO:SIC:v:s=32ee-\	!	!	!	!	!	!	!	!	!	!	!	!	!	!	!	!
.	.	.	32ee\	.	32gg\)	.	.	.	.	.	.	.	.	.	.	.	.	.	.
.	.	.	32ff\JJJ)	.	32aa-\JJJ	.	.	.	.	.	.	.	.	.	.	.	.	.	.
.	.	.	(32dd\LLL	.	(32ff\LLL	.	.	.	.	.	.	.	.	.	.	.	.	.	.
!	!	!	!LO:SIC:v:s=32ee-\	!	!	!	!	!	!	!	!	!	!	!	!	!	!	!	!
.	.	.	32ee\	.	32gg\	.	.	.	.	.	.	.	.	.	.	.	.	.	.
.	.	.	32cc\	.	32ee-\)	.	.	.	.	.	.	.	.	.	.	.	.	.	.
.	.	.	32dd\JJJ)	.	32ff\JJJ	.	.	.	.	.	.	.	.	.	.	.	.	.	.
!	!	!	!LO:SIC:v:s=(32b-\LLL	!	!	!	!	!	!	!	!	!	!	!	!	!	!	!	!
.	.	.	(32b\LLL	.	(32dd\LLL	.	.	.	.	.	.	.	.	.	.	.	.	.	.
.	.	.	32cc\	.	32ee-\	.	.	.	.	.	.	.	.	.	.	.	.	.	.
!	!	!	!LO:SIC:v:s=32a-\	!	!	!	!	!	!	!	!	!	!	!	!	!	!	!	!
.	.	.	32a\	.	32cc\)	.	.	.	.	.	.	.	.	.	.	.	.	.	.
!	!	!	!LO:SIC:v:s=32b-\JJJ)	!	!	!	!	!	!	!	!	!	!	!	!	!	!	!	!
.	.	.	32b\JJJ)	.	32dd\JJJ	.	.	.	.	.	.	.	.	.	.	.	.	.	.
.	.	.	(32g\LLL	.	(32b-\LLL	.	.	.	.	.	.	.	.	.	.	.	.	.	.
!	!	!	!LO:SIC:v:s=32a-\	!	!	!	!	!	!	!	!	!	!	!	!	!	!	!	!
.	.	.	32a\	.	32cc\	.	.	.	.	.	.	.	.	.	.	.	.	.	.
.	.	.	32f\	.	32a-\)	.	.	.	.	.	.	.	.	.	.	.	.	.	.
.	.	.	32g\JJJ)	.	32b-\JJJ	.	.	.	.	.	.	.	.	.	.	.	.	.	.
!	!	!	!LO:SIC:v:s=8e-/L	!	!	!	!	!	!	!	!	!	!	!	!	!	!	!	!
8E-\	.	.	8e/L	.	16g\LL	.	.	8E-\	-is	8e-\	-is	8g\	-is	8ee-\	-is	8e-\	.	8g\	.
.	.	.	.	.	16ee-\	.	.	.	.	.	.	.	.	.	.	.	.	.	.
8r	.	.	8g/	.	16dd\	.	.	8r	.	8r	.	8r	.	8r	.	8r	.	8r	.
.	.	.	.	.	16ee-\JJ	.	.	.	.	.	.	.	.	.	.	.	.	.	.
!	!	!	!LO:SIC:v:s=8b-/	!	!	!	!	!	!	!	!	!	!	!	!	!	!	!	!
8r	.	.	8b/	.	16gg\LL	.	.	4r	.	4r	.	4r	.	4r	.	4r	.	4r	.
.	.	.	.	.	16ee-\	.	.	.	.	.	.	.	.	.	.	.	.	.	.
!	!	!	!LO:SIC:v:s=8b-/J	!	!	!	!	!	!	!	!	!	!	!	!	!	!	!	!
8G\	6 -5	.	8b/J	.	16bb-\	.	.	.	.	.	.	.	.	.	.	.	.	.	.
.	.	.	.	.	16dd-X\JJ	.	.	.	.	.	.	.	.	.	.	.	.	.	.
!	!	!	!	!	!	!	!	!LO:LB:g=original	!	!LO:LB:g=original	!	!LO:LB:g=original	!	!	!	!	!	!LO:LB:g=original	!
=7	=7	=7	=7	=7	=7	=7	=7	=7	=7	=7	=7	=7	=7	=7	=7	=7	=7	=7	=7
8A-\	.	.	8a-X\L	.	(16cc\LL	.	1ryy	1r	.	1r	.	1r	.	1r	.	1r	.	1r	.
.	.	.	.	.	16ff\	.	.	.	.	.	.	.	.	.	.	.	.	.	.
8r	.	.	8cc\	.	16een\	.	.	.	.	.	.	.	.	.	.	.	.	.	.
.	.	.	.	.	16ff\JJ)	.	.	.	.	.	.	.	.	.	.	.	.	.	.
8r	.	.	8cc\	.	(16aan\LL	.	.	.	.	.	.	.	.	.	.	.	.	.	.
.	.	.	.	.	16ff\	.	.	.	.	.	.	.	.	.	.	.	.	.	.
8An\L	6 5	.	8cc\J	.	16ccc\	.	.	.	.	.	.	.	.	.	.	.	.	.	.
.	.	.	.	.	16ee-X\JJ)	.	.	.	.	.	.	.	.	.	.	.	.	.	.
!	!	!	!LO:SIC:v:s=8b-/L	!	!	!	!	!	!	!	!	!	!	!	!	!	!	!	!
8B-\J	.	.	8b/L	.	16dd\LL	.	.	.	.	.	.	.	.	.	.	.	.	.	.
.	.	.	.	.	16b-\	.	.	.	.	.	.	.	.	.	.	.	.	.	.
8r	.	.	8f/	.	16an\	.	.	.	.	.	.	.	.	.	.	.	.	.	.
.	.	.	.	.	16b-\JJ	.	.	.	.	.	.	.	.	.	.	.	.	.	.
!	!	!	!	!	!LO:TX:t=P:problem=mixed beam	!	!	!	!	!	!	!	!	!	!	!	!	!	!
8r	.	.	8f/	.	16dd\LL	.	.	.	.	.	.	.	.	.	.	.	.	.	.
.	.	.	.	.	16b-\	.	.	.	.	.	.	.	.	.	.	.	.	.	.
8D\	6 -5	.	8f/J	.	16ff\	.	.	.	.	.	.	.	.	.	.	.	.	.	.
.	.	.	.	.	16a-X/JJ	.	.	.	.	.	.	.	.	.	.	.	.	.	.
!	!	!	!	!	!	!	!	!	!	!	!	!	!	!LO:LB:g=original	!	!	!	!	!
=8	=8	=8	=8	=8	=8	=8	=8	=8	=8	=8	=8	=8	=8	=8	=8	=8	=8	=8	=8
!	!	!	!	!	!LO:TX:t=P:problem=mixed beam	!	!	!	!	!	!	!	!	!	!	!	!	!	!
4E-\	.	.	4g/	.	16g/LL	.	1ryy	4r	.	4r	.	4r	.	4r	.	2r	.	2r	.
.	.	.	.	.	16ee-\	.	.	.	.	.	.	.	.	.	.	.	.	.	.
.	.	.	.	.	16dd\	.	.	.	.	.	.	.	.	.	.	.	.	.	.
.	.	.	.	.	16ee-\JJ	.	.	.	.	.	.	.	.	.	.	.	.	.	.
!	!	!	!LO:SIC:v:s=4b-/	!	!	!	!	!	!	!	!	!	!	!	!	!	!	!	!
4G\	-5	.	4b/	.	16ee-\LL	.	.	8r	.	8r	.	8r	.	8r	.	.	.	.	.
.	.	.	.	.	16dd-X\	.	.	.	.	.	.	.	.	.	.	.	.	.	.
.	.	.	.	.	16cc\	.	.	8G\	lu-	8E-/	lu-	8b-\	lu-	8dd-X\	lu-	.	.	.	.
.	.	.	.	.	16dd-\JJ	.	.	.	.	.	.	.	.	.	.	.	.	.	.
!	!	!	!LO:SIC:v:s=8qqb-/	!	!LO:LB:g=original	!	!	!	!	!	!	!	!	!	!	!	!	!	!
.	.	.	8qqb/	.	8qqdd-X/	.	.	.	.	.	.	8qqb-/	.	8qqdd-/	.	.	.	.	.
!	!	!	!LO:SIC:v:s=8a-/L	!	!	!	!	!	!	!	!	!	!	!	!	!	!	!	!
4A-\	.	.	8a/L	.	8cc\L	.	.	8A-\	-ce-	8E-/	-ce-	8a-\	-ce-	8cc\	-ce-	4r	.	4r	.
.	.	.	16g/L	.	16b-\L	.	.	8A-\	-at	8E-/	-at	16g\LL	-at	16b-\LL	-at	.	.	.	.
.	.	.	16f/JJ	.	16a-\JJ	.	.	.	.	.	.	16f\JJ	.	16a-\JJ	.	.	.	.	.
!LO:TX:t=P:problem=mixed beam	!	!	!LO:SIC:v:s=8e-/L	!	!	!	!	!LO:TX:t=P:problem=mixed beam	!	!	!	!	!	!	!	!	!	!	!
8B-\L	6 4	.	8e/L	.	8g/L	.	.	8B-\L	e-	4B-\	e-	8e-\L	e-	8g/L	e-	8e-\L	.	8g\L	.
8BB-/J	5 3	.	8d/J	.	8f/J	.	.	8BB-/J	.	.	.	8d\J	.	8f/J	.	8B-\J	.	8f\J	.
!LO:LB:g=original	!	!	!LO:LB:g=original	!	!	!	!	!	!	!	!	!	!	!	!	!LO:LB:g=original	!	!	!
=9	=9	=9	=9	=9	=9	=9	=9	=9	=9	=9	=9	=9	=9	=9	=9	=9	=9	=9	=9
!	!	!	!LO:SIC:v:s=16e-/LL	!	!	!	!	!	!	!	!	!	!	!	!	!	!	!	!
8E-\	.	.	16e/LL	.	16e-'/LL	.	1ryy	8E-\	-is	4B-\	-is	4e-\	-is	4g/	-is	2E-/	.	2.e-\	.
!	!	!	!LO:SIC:v:s=16e-/	!	!	!	!	!	!	!	!	!	!	!	!	!	!	!	!
.	.	.	16e/	.	16e-'/	.	.	.	.	.	.	.	.	.	.	.	.	.	.
!	!	!	!LO:SIC:v:s=16e-/	!	!	!	!	!	!	!	!	!	!	!	!	!	!	!	!
8r	.	.	16e/	.	16e-'/	.	.	8r	.	.	.	.	.	.	.	.	.	.	.
!	!	!	!LO:SIC:v:s=16e-/JJ	!	!	!	!	!	!	!	!	!	!	!	!	!	!	!	!
.	.	.	16e/JJ	.	16e-'/JJ	.	.	.	.	.	.	.	.	.	.	.	.	.	.
*	*	*	*tremolo	*	*	*	*	*	*	*	*	*	*	*	*	*	*	*	*
!	!	!	!LO:SIC:v:s=16e-/LL	!	!	!	!	!	!	!	!	!	!	!	!	!	!	!	!
8c\L	6	.	16e/LL	.	(8a-/L	.	.	8c\L	lu-	4e-\	lu-	4e-\	lu-	8a-\L	lu-	.	.	.	.
!	!	!	!LO:SIC:v:s=16e-/	!	!	!	!	!	!	!	!	!	!	!	!	!	!	!	!
.	.	.	16e/	.	.	.	.	.	.	.	.	.	.	.	.	.	.	.	.
!	!	!	!LO:SIC:v:s=16e-/	!	!	!	!	!	!	!	!	!	!	!	!	!	!	!	!
8B-\J	6	.	16e/	.	8g/J)	.	.	8B-\J	.	.	.	.	.	8g\J	.	.	.	.	.
!	!	!	!LO:SIC:v:s=16e-/JJ	!	!	!	!	!	!	!	!	!	!	!	!	!	!	!	!
.	.	.	16e/JJ	.	.	.	.	.	.	.	.	.	.	.	.	.	.	.	.
!	!	!	!LO:SIC:v:s=16e-/LL	!	!	!	!	!	!	!	!	!	!	!	!	!	!	!	!
8A-\L	5_ 3	.	16e/LL	.	(8cc/L	.	.	8A-\	-ce-	8e-\	-ce-	8e-\	-ce-	8cc\	-ce-	4E-/	.	.	.
!	!	!	!LO:SIC:v:s=16e-/	!	!	!	!	!	!	!	!	!	!	!	!	!	!	!	!
.	.	.	16e/	.	.	.	.	.	.	.	.	.	.	.	.	.	.	.	.
!	!	!	!LO:SIC:v:s=16e-/	!	!	!	!	!	!	!	!	!	!	!	!	!	!	!	!
8G\J	_ 3	.	16e/	.	8b-/J)	.	.	8G\	-at	8e-\	-at	8e-\	-at	8b-\	-at	.	.	.	.
!	!	!	!LO:SIC:v:s=16e-/JJ	!	!	!	!	!	!	!	!	!	!	!	!	!	!	!	!
.	.	.	16e/JJ	.	.	.	.	.	.	.	.	.	.	.	.	.	.	.	.
*	*	*	*Xtremolo	*	*	*	*	*	*	*	*	*	*	*	*	*	*	*	*
!LO:TX:t=P:problem=mixed beam	!	!	!	!	!	!	!	!LO:TX:t=P:problem=mixed beam	!	!	!	!	!	!	!	!	!	!	!
8B-\L	8 6	.	16g/LL	.	(16b-/LL	.	.	8B-\L	e-	4B-\	e-	16g\LL	e-	16b-\LL	e-	16g\LL	.	16b-\LL	.
.	7 5	.	16f/	.	16a-/	.	.	.	.	.	.	16f\	.	16a-\	.	16f\	.	16a-\	.
!	!	!	!LO:SIC:v:s=16e-/	!	!	!	!	!	!	!	!	!	!	!	!	!	!	!	!
8BB-\J	6 4	.	16e/	.	16g/	.	.	8BB-/J	.	.	.	16e-\	.	16g\	.	16e-\	.	16g\	.
.	5 3	.	16d/JJ	.	16f/JJ)	.	.	.	.	.	.	16d\JJ	.	16f\JJ	.	16B-\JJ	.	16f\JJ	.
=10	=10	=10	=10	=10	=10	=10	=10	=10	=10	=10	=10	=10	=10	=10	=10	=10	=10	=10	=10
*	*	*	*tremolo	*	*	*	*	*	*	*	*	*	*	*	*	*	*	*	*
!	!	!	!LO:SIC:v:s=16e-/LL	!	!	!	!	!	!	!	!	!	!	!	!	!	!	!	!
8E-\	.	.	16e/LL	.	16e-'/LL	.	1ryy	8E-\	-is	4e-\	-is	4e-\	-is	4g\	-is	2E-/	.	2.e-\	.
!	!	!	!LO:SIC:v:s=16e-/	!	!	!	!	!	!	!	!	!	!	!	!	!	!	!	!
.	.	.	16e/	.	16e-'/	.	.	.	.	.	.	.	.	.	.	.	.	.	.
!	!	!	!LO:SIC:v:s=16e-/	!	!	!	!	!	!	!	!	!	!	!	!	!	!	!	!
8r	.	.	16e/	.	16e-'/	.	.	8r	.	.	.	.	.	.	.	.	.	.	.
!	!	!	!LO:SIC:v:s=16e-/	!	!	!	!	!	!	!	!	!	!	!	!	!	!	!	!
.	.	.	16e/	.	16e-'/JJ	.	.	.	.	.	.	.	.	.	.	.	.	.	.
!	!	!	!LO:SIC:v:s=16e-/	!	!	!	!	!	!	!	!	!	!	!	!	!	!	!	!
8c\L	6	.	16e/	.	(8a-/L	.	.	8c\L	lu-	4e-\	lu-	4e-\	lu-	8a-\L	lu-	.	.	.	.
!	!	!	!LO:SIC:v:s=16e-/	!	!	!	!	!	!	!	!	!	!	!	!	!	!	!	!
.	.	.	16e/	.	.	.	.	.	.	.	.	.	.	.	.	.	.	.	.
!	!	!	!LO:SIC:v:s=16e-/	!	!	!	!	!	!	!	!	!	!	!	!	!	!	!	!
8B-\J	6	.	16e/	.	8g/J)	.	.	8B-\J	.	.	.	.	.	8g\J	.	.	.	.	.
!	!	!	!LO:SIC:v:s=16e-/JJ	!	!	!	!	!	!	!	!	!	!	!	!	!	!	!	!
.	.	.	16e/JJ	.	.	.	.	.	.	.	.	.	.	.	.	.	.	.	.
!	!	!	!LO:SIC:v:s=16e-/LL	!	!	!	!	!LO:LB:g=original	!	!	!	!LO:LB:g=original	!	!	!	!	!	!	!
8A-\L	5_ 3	.	16e/LL	.	(8cc/L	.	.	8A-\	-ce-	8e-\	-ce-	8e-\	-ce-	8cc\	-ce-	4E-/	.	.	.
!	!	!	!LO:SIC:v:s=16e-/	!	!	!	!	!	!	!	!	!	!	!	!	!	!	!	!
.	.	.	16e/	.	.	.	.	.	.	.	.	.	.	.	.	.	.	.	.
!	!	!	!LO:SIC:v:s=16e-/	!	!	!	!	!	!	!	!	!	!	!	!	!	!	!	!
8G\J	_ 3	.	16e/	.	8b-/J)	.	.	8G\	-at	8e-\	-at	8e-\	-at	8b-\	-at	.	.	.	.
!	!	!	!LO:SIC:v:s=16e-/JJ	!	!	!	!	!	!	!	!	!	!	!	!	!	!	!	!
.	.	.	16e/JJ	.	.	.	.	.	.	.	.	.	.	.	.	.	.	.	.
*	*	*	*Xtremolo	*	*	*	*	*	*	*	*	*	*	*	*	*	*	*	*
!LO:TX:t=P:problem=mixed beam	!	!	!	!	!	!	!	!LO:TX:t=P:problem=mixed beam	!	!	!	!	!	!	!	!	!	!	!
8B-\L	8 6	.	16g/LL	.	(16b-/LL	.	.	8B-\L	e-	4B-\	e-	16g\LL	e-	16b-\LL	e-	16g\LL	.	16b-\LL	.
.	7 5	.	16f/	.	16a-/	.	.	.	.	.	.	16f\	.	16a-\JJ	.	16f\	.	16a-\	.
!	!	!	!LO:SIC:v:s=16e-/	!	!	!	!	!	!	!	!	!	!	!	!	!	!	!	!
8BB-/J	6 4	.	16e/	.	16g/	.	.	8BB-/J	.	.	.	16e-\	.	16g\LL	.	16e-\	.	16g\	.
.	5 3	.	16d/JJ	.	16f/JJ)	.	.	.	.	.	.	16d\JJ	.	16f\JJ	.	16B-\JJ	.	16f\JJ	.
!	!	!	!	!	!	!	!	!	!	!LO:LB:g=original	!	!	!	!LO:LB:g=original	!	!	!	!	!
=11	=11	=11	=11	=11	=11	=11	=11	=11	=11	=11	=11	=11	=11	=11	=11	=11	=11	=11	=11
!	!	!LO:DY:b:t=pianiſsimo.	!LO:SIC:v:s=8e-/L	!LO:DY:b:t=pianiſsimo.	!	!LO:DY:b:t=pianiſsimo.	!	!	!	!	!	!	!	!	!	!	!LO:DY:t=pianiſsimo	!	!LO:DY:t=pianiſsimo.
8E-\L	.	pp	8e/L	pp	8e-'/L	pp	1ryy	4E-\	-is.	4B-\	-is.	4e-\	-is.	4g\	-is.	8G'/L	pp	8e-'\L	pp
8E-\	.	.	8G/	.	8e-'/	.	.	.	.	.	.	.	.	.	.	8G'/	.	8e-'\	.
8E-\	.	.	8G/	.	8e-'/	.	.	4r	.	4r	.	4r	.	4r	.	8G'/	.	8e-'\	.
8E-\J	.	.	8G/J	.	8e-'/J	.	.	.	.	.	.	.	.	.	.	8G'/J	.	8e-'\J	.
4E-\	.	.	4G/	.	4e-/	.	.	2r	.	2r	.	2r	.	2r	.	4G'/	.	4e-'\	.
!	!	!	!	!	!	!	!	!	!	!LO:TX:b:t=fine &colon;/&colon;	!	!	!	!	!	!	!	!LO:TX:b:t=fine &colon;/&colon;	!
4r	.	.	4r	.	4r	.	.	.	.	.	.	.	.	.	.	4r	.	4r	.
==	==	==	==	==	==	==	==	==	==	==	==	==	==	==	==	==	==	==	==
*-	*-	*-	*-	*-	*-	*-	*-	*-	*-	*-	*-	*-	*-	*-	*-	*-	*-	*-	*-
!!!system-decoration: [(g1)][(g2)][(g3)]s10
!!!ENC: Marcin Jachim
!!!END: 2020-08-18
!!!ENC: Marta Lawrence
!!!END: 2021-10-31
